X:2
T:1st Cello Suite, 2 - Allemande
C:J.S. Bach
N:Edited by Jack Roberts
L:1/8
Q:1/4=80
M:4/4
K:D
|:f/ | [f2A2D2] z/e/d/c/ d/A/B/c/ d/e/f/g/ | a/f/d/c/ d/B/A/G/ F/G/A/B/ c/d/e/f/ | 
g/e/d/c/ d/B/c/d/ E/A/c/d/ e/f/g/e/ | f/d/d/A/ A/F/F/D/ D3/2f/ g/f/e/d/ | e/f/g/e/ d/c/d/e/ ^A3/2g/ f/e/d/c/ | 
d/B/B/F/ F/D/D/B,/ B,3/2F/ B/d/c/e/ | d/c/B/c/ d/^g/d/c/ d/g/B/c/ d/B/E/d/ | cA/B/ c/A/d/B/ c/A/c/d/ e/f/g/e/ | 
f/A/D/A/ f/d/e/c/ d/B/d/e/ f/^g/a/f/ | ^g/B/D/B/ g/e/f/a/ g/e/a/f/ g/e/b/d/ | 
c3/2a/ e/d/c/B/ A/e/d/B/ c/A/e/B/ | F3/2f/ A/G/F/E/ D/A/G/E/ F/D/A/C/ | B,/D/E/F/ ^G/A/B/c/ d/e/^g/a/ b/e/d' | 
A/d'/c'/b/ c'/a/e/a/ A/c/e/g/ f3/2e/ | [f3/2A3/2D3/2]e/ d/c/B/a/ ^g/b/e/d/ c/A/E/^G/ | 
A,3/2E/ A/c/e/^g/ a/e/c/A/ A,2 :|:e/ | [e2A2] z/c/d/e/ A/B/c/d/ e/c/A/G/ | F/A/d/c/ d/e/f/g/ a/f/e/d/ =c/B/c/a/ | 
B{A}G g/E/F/G/ A,/g/f/g/ a/f/g/e/ | ^d{c}B f/A/G/F/ G/B/c/=d/ e/g/f/e/ | aF/G/ A/B/=c/E/ ^D3/2B/ f/a/g/f/ | 
[g3/2B3/2E3/2]f/ e/d/=c/B/ c/A/=f/e/ f/g/a/e/ | ^d/e/g/B/ =c/A/G/F/ G/B/e/f/ [f3/2B3/2]e/ | 
[e3/2B3/2E3/2]f/ g/f/g/d/ c/d/e/B/ A/G/F/E/ | D/A/c/g/ f/e/d/e/ f/g/a/b/ a/b/=c'/a/ | 
bd G/a/g/f/ e/f/g/b/ a3/2g/ | ae F/g/f/e/ d/c/B/d/ f/a/g/f/ | gd E/B/c/d/ c/e/f/g/ A/G/F/E/ | 
D/A/c/e/ g/e/c/A/ [f3/2A3/2D3/2]A/ B/d/e/^g/ | a/e/c/B/ A/=c/d/f/ g/d/B/A/ G/B/e/g/ | 
c/e/g/b/ a3/2G/ F/d/E/D/ A,/E/d/c/ | d/D/F/A/ d/f/a/c'/ d'/a/f/d/ D2 :| 
 

